MonoIcons/scalable/status/changes-allow-symbolic.svg

<?xml version="1.0" encoding="UTF-8"?>
<svg height="16px" viewBox="0 0 16 16" width="16px" xmlns="http://www.w3.org/2000/svg">
    <path d="m 8 0 c -2.199219 0 -4 1.800781 -4 4 v 1 c 0 0.550781 0.449219 1 1 1 s 1 -0.449219 1 -1 v -1 c 0 -1.125 0.875 -2 2 -2 s 2 0.875 2 2 v 4 h -6 c -1.109375 0 -2 0.890625 -2 2 v 5 c 0 0.554688 0.445312 1 1 1 h 10 c 0.554688 0 1 -0.445312 1 -1 v -5 c 0 -1.109375 -0.890625 -2 -2 -2 v -4 c 0 -2.199219 -1.800781 -4 -4 -4 z m 0 0" fill="#2e3436"/>
</svg>

<svg width="16" height="16" viewBox="0 0 16 16" fill="none" xmlns="http://www.w3.org/2000/svg">
<path d="M8 0C5.80078 0 4 1.80078 4 4V5C4 5.55078 4.44922 6 5 6C5.55078 6 6 5.55078 6 5V4C6 2.875 6.875 2 8 2C9.125 2 10 2.875 10 4V8H4C2.89062 8 2 8.89062 2 10V15C2 15.5547 2.44531 16 3 16H13C13.5547 16 14 15.5547 14 15V10C14 8.89062 13.1094 8 12 8V4C12 1.80078 10.1992 0 8 0Z" fill="#2E3436"/>
</svg>
